Adwaita++-Dark/actions/16/formula.svg

<svg height="16" viewBox="0 0 16 16" width="16" xmlns="http://www.w3.org/2000/svg">
  <path d="m9.1503906 1a1.0001 1.0001 0 0 0 -.9667968.7421875l-1.8945313 7.0742187-.7597656-1.3164062a1.0001 1.0001 0 0 0 -.8652344-.5h-2.6621094a1.0001 1.0001 0 0 0 -1 1v1a1.0001 1.0001 0 0 0 1 1h1.5058594l2.5996094 4.5a1.0001 1.0001 0 0 0 1.8320312-.240234l2.7480469-10.259766h3.314453a1.0001 1.0001 0 0 0 1-1v-1a1.0001 1.0001 0 0 0 -1-1z" fill="#e6ddff"/>
</svg>

<svg xmlns="http://www.w3.org/2000/svg" width="16" height="16" viewBox="0 0 16 16">
 <defs>
  <style id="current-color-scheme" type="text/css">
   .ColorScheme-Text { color:#E6DDFF; } .ColorScheme-Highlight { color:#4285f4; }
  </style>
 </defs>
 <path style="fill:currentColor" class="ColorScheme-Text" d="M 9.1503906 1 A 1.0001 1.0001 0 0 0 8.1835938 1.7421875 L 6.2890625 8.8164062 L 5.5292969 7.5 A 1.0001 1.0001 0 0 0 4.6640625 7 L 2.0019531 7 A 1.0001 1.0001 0 0 0 1.0019531 8 L 1.0019531 9 A 1.0001 1.0001 0 0 0 2.0019531 10 L 3.5078125 10 L 6.1074219 14.5 A 1.0001 1.0001 0 0 0 7.9394531 14.259766 L 10.6875 4 L 14.001953 4 A 1.0001 1.0001 0 0 0 15.001953 3 L 15.001953 2 A 1.0001 1.0001 0 0 0 14.001953 1 L 9.1503906 1 z"/>
</svg>
